src/images/blog/twitter.svg

<svg fill="none" height="30" viewBox="0 0 30 30" width="30" xmlns="http://www.w3.org/2000/svg"><circle cx="15" cy="15" fill="#000" r="15"/><path d="m22.7692 11.4206c-.5492.2409-1.1344.4006-1.7446.4782.6277-.3748 1.1068-.9637 1.332-1.6736-.5852.349-1.2314.5954-1.92.733-.5557-.5917-1.3477-.9582-2.2117-.9582-1.6763 0-3.0258 1.3606-3.0258 3.0286 0 .24.0203.4708.0701.6905-2.5172-.1228-4.7446-1.3293-6.24089-3.1671-.26123.4532-.41446.972-.41446 1.5305 0 1.0486.54 1.9781 1.34492 2.5163-.48646-.0093-.96369-.1505-1.368-.373v.0333c0 1.4714 1.04954 2.6935 2.42583 2.9751-.2464.0673-.5151.0996-.7938.0996-.1939 0-.38957-.011-.57326-.0516.39226 1.199 1.50556 2.0806 2.82926 2.1092-1.0302.8058-2.3382 1.2914-3.75418 1.2914-.24831 0-.48647-.0111-.72462-.0416 1.34123.865 2.9308 1.3588 4.6449 1.3588 5.5717 0 8.6179-4.6154 8.6179-8.616 0-.1338-.0046-.2631-.0111-.3914.6009-.4264 1.1058-.9591 1.5175-1.572z" fill="#fff"/></svg>

<svg width="30" height="30" viewBox="0 0 30 30" fill="none" xmlns="http://www.w3.org/2000/svg">
<circle cx="15" cy="15" r="15" fill="black"/>
<path d="M22.7692 11.4206C22.22 11.6615 21.6348 11.8212 21.0246 11.8988C21.6523 11.524 22.1314 10.9351 22.3566 10.2252C21.7714 10.5742 21.1252 10.8206 20.4366 10.9582C19.8809 10.3665 19.0889 10 18.2249 10C16.5486 10 15.1991 11.3606 15.1991 13.0286C15.1991 13.2686 15.2194 13.4994 15.2692 13.7191C12.752 13.5963 10.5246 12.3898 9.02831 10.552C8.76708 11.0052 8.61385 11.524 8.61385 12.0825C8.61385 13.1311 9.15385 14.0606 9.95877 14.5988C9.47231 14.5895 8.99508 14.4483 8.59077 14.2258C8.59077 14.2351 8.59077 14.2471 8.59077 14.2591C8.59077 15.7305 9.64031 16.9526 11.0166 17.2342C10.7702 17.3015 10.5015 17.3338 10.2228 17.3338C10.0289 17.3338 9.83323 17.3228 9.64954 17.2822C10.0418 18.4812 11.1551 19.3628 12.4788 19.3914C11.4486 20.1972 10.1406 20.6828 8.72462 20.6828C8.47631 20.6828 8.23815 20.6717 8 20.6412C9.34123 21.5062 10.9308 22 12.6449 22C18.2166 22 21.2628 17.3846 21.2628 13.384C21.2628 13.2502 21.2582 13.1209 21.2517 12.9926C21.8526 12.5662 22.3575 12.0335 22.7692 11.4206Z" fill="white"/>
</svg>
